icons/refused.svg

<svg width="48" height="48" viewBox="0 0 48 48" fill="none" xmlns="http://www.w3.org/2000/svg">
<path fill-rule="evenodd" clip-rule="evenodd" d="M22.5 6C23.3284 6 24 6.67157 24 7.5V23H26V10.5C26 9.67157 26.6716 9 27.5 9C28.3284 9 29 9.67157 29 10.5V26.0855C29 27.9898 31.4096 28.8165 32.5787 27.3133L35.7652 23.2164C36.3798 22.4262 37.5775 22.4367 38.1782 23.2376C38.5503 23.7338 38.5832 24.4064 38.2613 24.9366L31.0573 36.7992C29.0962 40.0283 25.5921 42 21.8141 42C15.8416 42 11 37.1584 11 31.1859V16.5C11 15.6716 11.6716 15 12.5 15C13.3284 15 14 15.6716 14 16.5V25.1176H16V10.5C16 9.67157 16.6716 9 17.5 9C18.3284 9 19 9.67157 19 10.5V23H21V7.5C21 6.67157 21.6716 6 22.5 6ZM19.0037 7.33856C19.088 5.4805 20.6211 4 22.5 4C24.3789 4 25.912 5.4805 25.9963 7.33856C26.4519 7.1215 26.9618 7 27.5 7C29.433 7 31 8.567 31 10.5V26.0855L34.1865 21.9885C35.6107 20.1574 38.3863 20.1817 39.7782 22.0376C40.6406 23.1874 40.7168 24.7462 39.9707 25.9747L32.7667 37.8373C30.443 41.6637 26.2908 44 21.8141 44C14.7371 44 9 38.2629 9 31.1859V16.5C9 14.567 10.567 13 12.5 13C13.0368 13 13.5454 13.1208 14 13.3368V10.5C14 8.567 15.567 7 17.5 7C18.0382 7 18.5481 7.1215 19.0037 7.33856Z" fill="black"/>
</svg>

<svg
  xmlns="http://www.w3.org/2000/svg"
  width="24"
  height="24"
  viewBox="0 0 24 24"
  fill="none"
  stroke="currentColor"
  stroke-width="2"
  stroke-linecap="round"
  stroke-linejoin="round"
>
  <path
    fill-rule="evenodd"
    d="M22.5 6A1.5 1.5 0 0 1 24 7.5V23h2V10.5a1.5 1.5 0 0 1 3 0v15.586c0 1.904 2.41 2.73 3.579 1.227l3.186-4.097a1.518 1.518 0 0 1 2.496 1.72L31.057 36.8A10.81 10.81 0 0 1 21.814 42C15.842 42 11 37.158 11 31.186V16.5a1.5 1.5 0 0 1 3 0v8.618h2V10.5a1.5 1.5 0 0 1 3 0V23h2V7.5A1.5 1.5 0 0 1 22.5 6m-3.496 1.339a3.5 3.5 0 0 1 6.992 0A3.5 3.5 0 0 1 31 10.5v15.586l3.187-4.097a3.518 3.518 0 0 1 5.784 3.986l-7.204 11.862A12.81 12.81 0 0 1 21.814 44C14.737 44 9 38.263 9 31.186V16.5a3.5 3.5 0 0 1 5-3.163V10.5a3.5 3.5 0 0 1 5.004-3.161"
    clip-rule="evenodd"
  />
</svg>
